;FLAVOR:Marlin
;TIME:6666
;Filament used: 0m
;Layer height: 0.1
;MINX:2.14748e+06
;MINY:2.14748e+06
;MINZ:2.14748e+06
;MAXX:-2.14748e+06
;MAXY:-2.14748e+06
;MAXZ:-2.14748e+06

;Generated with Cura_SteamEngine master
M104 S215
M105
M109 S215
M82 ;absolute extrusion mode
G28 ;Home
G1 Z15.0 F6000 ;Move the platform down 15mm
;Prime the extruder
G92 E0
G1 F200 E3
G92 E0
G92 E0
G92 E0
G1 F1500 E-6.5
;LAYER_COUNT:24
;LAYER:0
M107
G0 F3600 X46.16 Y61.257 Z0.3
;TYPE:SKIRT
G1 F1500 E0
G1 F1800 X46.802 Y60.796 E0.00496
G1 X47.486 Y60.403 E0.0099
G1 X48.208 Y60.081 E0.01486
G1 X48.958 Y59.834 E0.01981
G1 X49.729 Y59.664 E0.02476
G1 X50.496 Y59.574 E0.0296
G1 X50.718 Y59.559 E0.031
G1 X51.508 Y59.545 E0.03595
G1 X52.295 Y59.612 E0.0409
G1 X53.071 Y59.758 E0.04586
G1 X53.828 Y59.981 E0.0508
G1 X54.559 Y60.28 E0.05576
G1 X55.475 Y60.788 E0.06232
G1 X55.918 Y61.074 E0.06563
G1 X56.154 Y61.243 E0.06745
G1 X56.156 Y61.243 E0.06746
G1 X56.943 Y61.182 E0.07241
G1 X57.733 Y61.2 E0.07737
G1 X58.516 Y61.299 E0.08232
G1 X59.286 Y61.476 E0.08727
G1 X60.033 Y61.73 E0.09222
G1 X60.752 Y62.058 E0.09717
G1 X61.473 Y62.484 E0.10242
G1 X61.67 Y62.615 E0.10391
G1 X62.305 Y63.085 E0.10886
G1 X62.888 Y63.617 E0.11381
G1 X63.416 Y64.205 E0.11876
G1 X63.88 Y64.843 E0.12371
G1 X64.278 Y65.525 E0.12866
G1 X64.605 Y66.244 E0.13361
G1 X64.858 Y66.992 E0.13856
G1 X65.034 Y67.762 E0.14352
G1 X65.131 Y68.546 E0.14847
G1 X65.148 Y69.335 E0.15342
G1 X65.085 Y70.122 E0.15837
G1 X64.943 Y70.899 E0.16332
G1 X64.723 Y71.658 E0.16828
G1 X64.428 Y72.39 E0.17323
G1 X64.06 Y73.089 E0.17818
G1 X63.667 Y73.686 E0.18266
G1 X63.525 Y73.882 E0.18418
G1 X63.03 Y74.497 E0.18913
G1 X62.476 Y75.059 E0.19408
G1 X62.053 Y75.419 E0.19756
G1 X61.817 Y75.606 E0.19945
G1 X61.174 Y76.065 E0.2044
G1 X60.488 Y76.456 E0.20935
G1 X59.766 Y76.776 E0.2143
G1 X59.303 Y76.937 E0.21738
G1 X58.744 Y77.112 E0.22105
G1 X57.606 Y77.376 E0.22837
G1 X56.998 Y77.47 E0.23223
G1 X56.325 Y77.545 E0.23648
G1 X55.71 Y77.586 E0.24034
G1 X54.957 Y77.599 E0.24506
G1 X54.323 Y77.58 E0.24904
G1 X53.535 Y77.517 E0.254
G1 X52.877 Y77.43 E0.25816
G1 X51.72 Y77.186 E0.26557
G1 X51.122 Y77.012 E0.26948
G1 X50.306 Y76.725 E0.2749
G1 X49.724 Y76.483 E0.27886
G1 X48.883 Y76.073 E0.28472
G1 X48.327 Y75.759 E0.28873
G1 X47.563 Y75.266 E0.29443
G1 X47.033 Y74.879 E0.29854
G1 X46.291 Y74.263 E0.30459
G1 X45.924 Y73.918 E0.30775
G1 X45.376 Y73.349 E0.3127
G1 X44.903 Y72.746 E0.31751
G1 X44.696 Y72.454 E0.31975
G1 X44.272 Y71.787 E0.32471
G1 X43.918 Y71.082 E0.32965
G1 X43.736 Y70.629 E0.33271
G1 X43.619 Y70.31 E0.33484
G1 X43.385 Y69.556 E0.33979
G1 X43.228 Y68.782 E0.34475
G1 X43.151 Y67.996 E0.3497
G1 X43.153 Y67.206 E0.35465
G1 X43.235 Y66.421 E0.3596
G1 X43.468 Y65.393 E0.36621
G1 X43.548 Y65.125 E0.36796
G1 X43.812 Y64.381 E0.37291
G1 X44.15 Y63.667 E0.37787
G1 X44.558 Y62.991 E0.38282
G1 X45.032 Y62.36 E0.38777
G1 X45.568 Y61.78 E0.39272
G1 X46.16 Y61.257 E0.39767
G0 F3600 X46.504 Y61.496
G1 F1800 X47.136 Y61.058 E0.40249
G1 X47.811 Y60.689 E0.40731
G1 X48.521 Y60.392 E0.41214
G1 X49.257 Y60.17 E0.41696
G1 X50.012 Y60.025 E0.42178
G1 X50.523 Y59.973 E0.425
G1 X50.745 Y59.958 E0.4264
G1 X51.514 Y59.946 E0.43122
G1 X52.28 Y60.014 E0.43604
G1 X53.035 Y60.161 E0.44086
G1 X53.771 Y60.386 E0.44569
G1 X54.479 Y60.686 E0.45051
G1 X55.258 Y61.124 E0.45611
G1 X55.701 Y61.41 E0.45942
G1 X56.057 Y61.667 E0.46217
G1 X56.227 Y61.637 E0.46326
G1 X56.994 Y61.581 E0.46808
G1 X57.763 Y61.604 E0.4729
G1 X58.525 Y61.707 E0.47772
G1 X59.272 Y61.889 E0.48254
G1 X59.997 Y62.147 E0.48737
G1 X60.691 Y62.479 E0.49219
G1 X61.252 Y62.817 E0.4963
G1 X61.449 Y62.948 E0.49778
G1 X62.066 Y63.407 E0.50261
G1 X62.633 Y63.927 E0.50743
G1 X63.142 Y64.503 E0.51225
G1 X63.589 Y65.129 E0.51707
G1 X63.968 Y65.798 E0.52189
G1 X64.277 Y66.503 E0.52672
G1 X64.51 Y67.236 E0.53154
G1 X64.666 Y67.989 E0.53636
G1 X64.742 Y68.754 E0.54118
G1 X64.739 Y69.523 E0.54601
G1 X64.657 Y70.288 E0.55083
G1 X64.495 Y71.04 E0.55565
G1 X64.256 Y71.771 E0.56048
G1 X63.942 Y72.474 E0.5653
G1 X63.344 Y73.452 E0.57249
G1 X63.202 Y73.648 E0.57401
G1 X62.719 Y74.246 E0.57883
G1 X62.176 Y74.791 E0.58365
G1 X61.805 Y75.106 E0.5867
G1 X61.569 Y75.293 E0.58859
G1 X60.942 Y75.739 E0.59342
G1 X60.272 Y76.117 E0.59824
G1 X59.567 Y76.424 E0.60306
G1 X59.184 Y76.555 E0.6056
G1 X58.625 Y76.73 E0.60927
G1 X57.545 Y76.981 E0.61623
G1 X56.937 Y77.075 E0.62008
G1 X56.298 Y77.146 E0.62411
G1 X55.683 Y77.187 E0.62798
G1 X54.969 Y77.2 E0.63246
G1 X54.335 Y77.181 E0.63643
G1 X53.587 Y77.12 E0.64114
G1 X52.929 Y77.033 E0.6453
G1 X51.832 Y76.802 E0.65233
G1 X51.234 Y76.628 E0.65624
G1 X50.46 Y76.356 E0.66138
G1 X49.878 Y76.114 E0.66533
G1 X49.08 Y75.724 E0.6709
G1 X48.524 Y75.41 E0.6749
G1 X47.799 Y74.943 E0.68031
G1 X47.269 Y74.556 E0.68443
G1 X46.565 Y73.972 E0.69016
G1 X46.198 Y73.627 E0.69332
G1 X45.665 Y73.071 E0.69815
G1 X45.229 Y72.515 E0.70258
G1 X45.022 Y72.223 E0.70482
G1 X44.61 Y71.573 E0.70965
G1 X44.268 Y70.884 E0.71447
G1 X44.112 Y70.491 E0.71712
G1 X43.995 Y70.172 E0.71925
G1 X43.768 Y69.437 E0.72408
G1 X43.618 Y68.683 E0.7289
G1 X43.548 Y67.917 E0.73372
G1 X43.557 Y67.148 E0.73854
G1 X43.647 Y66.384 E0.74337
G1 X43.851 Y65.507 E0.74901
G1 X43.931 Y65.239 E0.75077
G1 X44.189 Y64.515 E0.75559
G1 X44.521 Y63.821 E0.76041
G1 X44.923 Y63.165 E0.76523
G1 X45.391 Y62.555 E0.77005
G1 X45.92 Y61.996 E0.77488
G1 X46.504 Y61.496 E0.7797
G0 F3600 X46.846 Y61.738
G1 F1800 X47.469 Y61.324 E0.78439
G1 X48.133 Y60.98 E0.78908
G1 X48.83 Y60.708 E0.79377
G1 X49.552 Y60.512 E0.79846
G1 X50.55 Y60.372 E0.80478
G1 X50.772 Y60.357 E0.80618
G1 X51.52 Y60.346 E0.81087
G1 X52.265 Y60.416 E0.81556
G1 X52.998 Y60.564 E0.82025
G1 X53.711 Y60.79 E0.82494
G1 X54.396 Y61.091 E0.82963
G1 X55.041 Y61.46 E0.83429
G1 X55.484 Y61.746 E0.83759
G1 X55.961 Y62.092 E0.84129
G1 X56.297 Y62.032 E0.84343
G1 X57.044 Y61.98 E0.84812
G1 X57.791 Y62.008 E0.85281
G1 X58.531 Y62.116 E0.8575
G1 X59.256 Y62.302 E0.86219
G1 X59.956 Y62.564 E0.86688
G1 X60.625 Y62.9 E0.87157
G1 X61.03 Y63.15 E0.87456
G1 X61.227 Y63.281 E0.87604
G1 X61.827 Y63.728 E0.88073
G1 X62.376 Y64.236 E0.88542
G1 X62.867 Y64.8 E0.89011
G1 X63.296 Y65.414 E0.89481
G1 X63.656 Y66.069 E0.89949
G1 X63.945 Y66.759 E0.90418
G1 X64.158 Y67.476 E0.90887
G1 X64.293 Y68.212 E0.91357
G1 X64.349 Y68.958 E0.91826
G1 X64.326 Y69.706 E0.92295
G1 X64.222 Y70.447 E0.92764
G1 X64.04 Y71.172 E0.93233
G1 X63.782 Y71.874 E0.93702
G1 X63.45 Y72.545 E0.94171
G1 X63.02 Y73.217 E0.94671
G1 X62.878 Y73.413 E0.94823
G1 X62.407 Y73.994 E0.95292
G1 X61.877 Y74.522 E0.95761
G1 X61.556 Y74.792 E0.96024
G1 X61.32 Y74.979 E0.96213
G1 X60.71 Y75.412 E0.96682
G1 X60.057 Y75.777 E0.97151
G1 X59.064 Y76.173 E0.97821
G1 X58.505 Y76.348 E0.98189
G1 X57.484 Y76.586 E0.98846
G1 X56.876 Y76.68 E0.99232
G1 X56.272 Y76.746 E0.99613
G1 X55.657 Y76.787 E0.99999
G1 X54.981 Y76.8 E1.00423
G1 X54.347 Y76.781 E1.00821
G1 X53.639 Y76.724 E1.01266
G1 X52.981 Y76.637 E1.01682
G1 X51.943 Y76.418 E1.02348
G1 X51.345 Y76.244 E1.02738
G1 X50.613 Y75.987 E1.03225
G1 X50.031 Y75.745 E1.0362
G1 X49.277 Y75.376 E1.04146
G1 X48.721 Y75.062 E1.04547
G1 X48.035 Y74.62 E1.05058
G1 X47.505 Y74.233 E1.0547
G1 X46.838 Y73.68 E1.06013
G1 X46.471 Y73.335 E1.06329
G1 X45.955 Y72.794 E1.06798
G1 X45.555 Y72.283 E1.07204
G1 X45.348 Y71.991 E1.07429
G1 X44.949 Y71.359 E1.07898
G1 X44.487 Y70.353 E1.08592
G1 X44.37 Y70.034 E1.08805
G1 X44.15 Y69.319 E1.09274
G1 X44.008 Y68.585 E1.09743
G1 X43.945 Y67.839 E1.10212
G1 X43.962 Y67.092 E1.1068
G1 X44.059 Y66.35 E1.1115
G1 X44.234 Y65.622 E1.11619
G1 X44.314 Y65.354 E1.11795
G1 X44.566 Y64.649 E1.12264
G1 X44.892 Y63.976 E1.12733
G1 X45.288 Y63.341 E1.13202
G1 X45.749 Y62.752 E1.13671
G1 X46.27 Y62.216 E1.1414
G1 X46.846 Y61.738 E1.14609
G0 F3600 X47.187 Y61.985
G1 F1800 X47.8 Y61.596 E1.15064
G1 X48.453 Y61.277 E1.1552
G1 X49.137 Y61.031 E1.15976
G1 X49.843 Y60.862 E1.16431
G1 X50.577 Y60.771 E1.16895
G1 X50.799 Y60.756 E1.17034
G1 X51.525 Y60.747 E1.17489
G1 X52.248 Y60.818 E1.17945
G1 X52.959 Y60.968 E1.18401
G1 X53.649 Y61.195 E1.18856
G1 X54.31 Y61.496 E1.19311
G1 X54.824 Y61.796 E1.19685
G1 X55.267 Y62.082 E1.20015
G1 X55.854 Y62.509 E1.2047
G1 X55.861 Y62.515 E1.20476
G1 X56.367 Y62.426 E1.20798
G1 X57.092 Y62.379 E1.21254
G1 X57.818 Y62.412 E1.2171
G1 X58.535 Y62.525 E1.22165
G1 X59.236 Y62.716 E1.2262
G1 X59.912 Y62.983 E1.23076
G1 X60.809 Y63.483 E1.2372
G1 X61.006 Y63.614 E1.23868
G1 X61.587 Y64.049 E1.24323
G1 X62.118 Y64.545 E1.24779
G1 X62.591 Y65.097 E1.25235
G1 X63 Y65.697 E1.2569
G1 X63.341 Y66.338 E1.26145
G1 X63.609 Y67.013 E1.26601
G1 X63.802 Y67.714 E1.27057
G1 X63.916 Y68.431 E1.27512
G1 X63.951 Y69.156 E1.27967
G1 X63.906 Y69.881 E1.28422
G1 X63.781 Y70.597 E1.28878
G1 X63.579 Y71.295 E1.29334
G1 X63.301 Y71.966 E1.29789
G1 X62.951 Y72.602 E1.30244
G1 X62.696 Y72.982 E1.30531
G1 X62.554 Y73.178 E1.30683
G1 X62.096 Y73.742 E1.31139
G1 X61.308 Y74.479 E1.31815
G1 X61.072 Y74.666 E1.32004
G1 X60.479 Y75.085 E1.32459
G1 X59.843 Y75.436 E1.32915
G1 X58.945 Y75.792 E1.3352
G1 X58.386 Y75.967 E1.33888
G1 X57.422 Y76.191 E1.34508
G1 X56.814 Y76.285 E1.34894
G1 X56.245 Y76.347 E1.35253
G1 X55.63 Y76.388 E1.35639
G1 X54.993 Y76.4 E1.36039
G1 X54.359 Y76.381 E1.36436
G1 X53.692 Y76.327 E1.36856
G1 X53.034 Y76.24 E1.37272
G1 X52.055 Y76.034 E1.37899
G1 X51.457 Y75.86 E1.3829
G1 X50.767 Y75.617 E1.38749
G1 X50.185 Y75.375 E1.39144
G1 X49.473 Y75.028 E1.39641
G1 X48.917 Y74.714 E1.40041
G1 X48.271 Y74.297 E1.40523
G1 X47.741 Y73.91 E1.40935
G1 X47.112 Y73.389 E1.41447
G1 X46.745 Y73.044 E1.41762
G1 X46.244 Y72.518 E1.42218
G1 X45.882 Y72.052 E1.42588
G1 X45.675 Y71.76 E1.42812
G1 X45.288 Y71.145 E1.43268
G1 X44.863 Y70.216 E1.43909
G1 X44.746 Y69.897 E1.44122
G1 X44.533 Y69.202 E1.44577
G1 X44.399 Y68.488 E1.45033
G1 X44.343 Y67.764 E1.45488
G1 X44.368 Y67.038 E1.45944
G1 X44.472 Y66.319 E1.46399
G1 X44.618 Y65.736 E1.46776
G1 X44.698 Y65.468 E1.46951
G1 X44.944 Y64.785 E1.47407
G1 X45.263 Y64.132 E1.47862
G1 X45.652 Y63.519 E1.48317
G1 X46.106 Y62.952 E1.48773
G1 X46.62 Y62.439 E1.49228
G1 X47.187 Y61.985 E1.49684
G0 F3600 X46.968 Y62.665
G1 F1800 X47.526 Y62.236 E1.50125
G1 X48.129 Y61.872 E1.50567
G1 X48.769 Y61.58 E1.51008
G1 X49.439 Y61.362 E1.5145
G1 X50.128 Y61.221 E1.51891
G1 X50.604 Y61.17 E1.52191
G1 X50.826 Y61.155 E1.5233
G1 X51.53 Y61.148 E1.52772
G1 X52.23 Y61.22 E1.53213
G1 X52.918 Y61.371 E1.53655
G1 X53.584 Y61.599 E1.54096
G1 X54.22 Y61.902 E1.54538
G1 X54.607 Y62.132 E1.5482
G1 X55.05 Y62.418 E1.55151
G1 X55.619 Y62.833 E1.55592
G1 X55.739 Y62.943 E1.55694
G1 X55.743 Y62.942 E1.55697
G1 X56.436 Y62.821 E1.56138
G1 X57.139 Y62.779 E1.56579
G1 X57.842 Y62.817 E1.57021
G1 X58.536 Y62.935 E1.57462
G1 X59.212 Y63.131 E1.57904
G1 X59.862 Y63.402 E1.58345
G1 X60.587 Y63.816 E1.58869
G1 X60.784 Y63.947 E1.59017
G1 X61.347 Y64.37 E1.59459
G1 X61.859 Y64.853 E1.599
G1 X62.312 Y65.392 E1.60341
G1 X62.702 Y65.978 E1.60783
G1 X63.022 Y66.605 E1.61224
G1 X63.27 Y67.264 E1.61666
G1 X63.441 Y67.947 E1.62107
G1 X63.534 Y68.645 E1.62549
G1 X63.546 Y69.349 E1.6299
G1 X63.479 Y70.049 E1.63431
G1 X63.333 Y70.738 E1.63873
G1 X63.11 Y71.406 E1.64314
G1 X62.813 Y72.044 E1.64755
G1 X62.372 Y72.748 E1.65276
G1 X62.23 Y72.944 E1.65428
G1 X61.785 Y73.489 E1.65869
G1 X61.059 Y74.165 E1.66491
G1 X60.823 Y74.352 E1.6668
G1 X60.248 Y74.758 E1.67121
G1 X59.63 Y75.095 E1.67563
G1 X58.825 Y75.41 E1.68105
G1 X58.266 Y75.585 E1.68472
G1 X57.361 Y75.795 E1.69055
G1 X56.753 Y75.889 E1.6944
G1 X56.218 Y75.948 E1.69778
G1 X55.603 Y75.989 E1.70164
G1 X55.005 Y76 E1.70539
G1 X54.371 Y75.981 E1.70937
G1 X53.744 Y75.931 E1.71331
G1 X53.086 Y75.844 E1.71748
G1 X52.167 Y75.65 E1.72337
G1 X51.569 Y75.476 E1.72727
G1 X50.921 Y75.248 E1.73158
G1 X50.339 Y75.006 E1.73553
G1 X49.67 Y74.68 E1.7402
G1 X49.114 Y74.366 E1.7442
G1 X48.507 Y73.974 E1.74873
G1 X47.977 Y73.587 E1.75285
G1 X47.386 Y73.097 E1.75766
G1 X47.019 Y72.752 E1.76082
G1 X46.535 Y72.242 E1.76523
G1 X46.208 Y71.821 E1.76857
G1 X46.001 Y71.529 E1.77081
G1 X45.627 Y70.932 E1.77523
G1 X45.238 Y70.078 E1.78111
G1 X45.121 Y69.759 E1.78324
G1 X44.917 Y69.085 E1.78766
G1 X44.79 Y68.393 E1.79207
G1 X44.742 Y67.69 E1.79649
G1 X44.775 Y66.987 E1.8009
G1 X44.887 Y66.292 E1.80532
G1 X45.001 Y65.851 E1.80817
G1 X45.081 Y65.583 E1.80993
G1 X45.32 Y64.921 E1.81434
G1 X45.633 Y64.29 E1.81876
G1 X46.016 Y63.699 E1.82317
G1 X46.462 Y63.155 E1.82758
G1 X46.968 Y62.665 E1.832
G0 F3600 X47.315 Y62.895
G1 F1800 X47.863 Y62.492 E1.83626
G1 X48.455 Y62.155 E1.84054
G1 X49.082 Y61.89 E1.8448
G1 X49.736 Y61.7 E1.84907
G1 X50.631 Y61.569 E1.85475
G1 X50.853 Y61.554 E1.85614
G1 X51.534 Y61.548 E1.86041
G1 X52.211 Y61.622 E1.86468
G1 X52.874 Y61.775 E1.86895
G1 X53.515 Y62.004 E1.87322
G1 X54.39 Y62.468 E1.87943
G1 X54.833 Y62.754 E1.88273
G1 X55.382 Y63.156 E1.887
G1 X55.626 Y63.38 E1.88907
G1 X55.834 Y63.331 E1.89041
G1 X56.505 Y63.215 E1.89468
G1 X57.185 Y63.179 E1.89895
G1 X57.864 Y63.223 E1.90322
G1 X58.534 Y63.346 E1.90749
G1 X59.185 Y63.546 E1.91176
G1 X59.807 Y63.821 E1.91603
G1 X60.366 Y64.149 E1.92009
G1 X60.563 Y64.28 E1.92157
G1 X61.106 Y64.69 E1.92584
G1 X61.599 Y65.161 E1.93011
G1 X62.032 Y65.686 E1.93438
G1 X62.401 Y66.258 E1.93865
G1 X62.701 Y66.869 E1.94292
G1 X62.926 Y67.512 E1.94719
G1 X63.075 Y68.176 E1.95146
G1 X63.145 Y68.853 E1.95572
G1 X63.135 Y69.534 E1.95999
G1 X63.046 Y70.209 E1.96426
G1 X62.878 Y70.869 E1.96853
G1 X62.634 Y71.504 E1.9728
G1 X62.317 Y72.107 E1.97707
G1 X62.048 Y72.513 E1.98012
G1 X61.906 Y72.709 E1.98164
G1 X61.475 Y73.236 E1.98591
G1 X60.811 Y73.852 E1.99159
G1 X60.575 Y74.039 E1.99348
G1 X60.017 Y74.43 E1.99775
G1 X59.418 Y74.752 E2.00201
G1 X58.706 Y75.028 E2.0068
G1 X58.147 Y75.203 E2.01047
G1 X57.3 Y75.4 E2.01593
G1 X56.692 Y75.494 E2.01979
G1 X56.192 Y75.549 E2.02294
G1 X55.577 Y75.59 E2.0268
G1 X55.017 Y75.6 E2.03032
G1 X54.383 Y75.581 E2.03429
G1 X53.797 Y75.534 E2.03798
G1 X53.139 Y75.447 E2.04214
G1 X52.279 Y75.266 E2.04765
G1 X51.681 Y75.092 E2.05156
G1 X51.074 Y74.878 E2.05559
G1 X50.492 Y74.636 E2.05954
G1 X49.867 Y74.331 E2.0639
G1 X49.311 Y74.017 E2.06791
G1 X48.743 Y73.651 E2.07215
G1 X48.213 Y73.264 E2.07626
G1 X47.66 Y72.806 E2.08076
G1 X47.293 Y72.461 E2.08392
G1 X46.826 Y71.966 E2.08819
G1 X46.534 Y71.589 E2.09118
G1 X46.327 Y71.297 E2.09342
G1 X45.967 Y70.72 E2.09769
G1 X45.614 Y69.94 E2.10305
G1 X45.497 Y69.621 E2.10518
G1 X45.3 Y68.969 E2.10946
G1 X45.181 Y68.299 E2.11372
G1 X45.142 Y67.619 E2.11799
G1 X45.183 Y66.939 E2.12226
G1 X45.384 Y65.965 E2.1285
G1 X45.464 Y65.697 E2.13025
G1 X45.697 Y65.057 E2.13452
G1 X46.003 Y64.449 E2.13879
G1 X46.378 Y63.881 E2.14306
G1 X46.818 Y63.361 E2.14733
G1 X47.315 Y62.895 E2.1516
G0 F3600 X47.66 Y63.13
G1 F1800 X48.198 Y62.753 E2.15572
G1 X48.778 Y62.444 E2.15984
G1 X49.391 Y62.208 E2.16396
G1 X50.028 Y62.048 E2.16808
G1 X50.658 Y61.968 E2.17206
G1 X50.88 Y61.953 E2.17346
G1 X51.537 Y61.949 E2.17758
G1 X52.19 Y62.024 E2.1817
G1 X52.828 Y62.179 E2.18581
G1 X53.443 Y62.409 E2.18993
G1 X54.173 Y62.804 E2.19514
G1 X54.616 Y63.09 E2.19844
G1 X55.145 Y63.48 E2.20256
G1 X55.513 Y63.817 E2.20569
G1 X55.925 Y63.721 E2.20834
G1 X56.573 Y63.61 E2.21247
G1 X57.229 Y63.58 E2.21658
G1 X57.884 Y63.629 E2.2207
G1 X58.528 Y63.757 E2.22482
G1 X59.152 Y63.962 E2.22894
G1 X59.747 Y64.242 E2.23306
G1 X60.144 Y64.482 E2.23597
G1 X60.341 Y64.613 E2.23745
G1 X60.865 Y65.01 E2.24158
G1 X61.337 Y65.467 E2.24569
G1 X61.75 Y65.978 E2.24981
G1 X62.098 Y66.535 E2.25393
G1 X62.375 Y67.131 E2.25805
G1 X62.578 Y67.755 E2.26217
G1 X62.704 Y68.4 E2.26629
G1 X62.751 Y69.056 E2.27041
G1 X62.717 Y69.712 E2.27453
G1 X62.605 Y70.359 E2.27865
G1 X62.414 Y70.988 E2.28277
G1 X62.149 Y71.589 E2.28689
G1 X61.724 Y72.278 E2.29196
G1 X61.582 Y72.474 E2.29348
G1 X61.165 Y72.982 E2.2976
G1 X60.563 Y73.538 E2.30274
G1 X60.327 Y73.725 E2.30463
G1 X59.788 Y74.101 E2.30875
G1 X59.207 Y74.409 E2.31287
G1 X58.586 Y74.646 E2.31704
G1 X58.027 Y74.821 E2.32071
G1 X57.239 Y75.005 E2.32579
G1 X56.631 Y75.099 E2.32964
G1 X56.165 Y75.15 E2.33258
G1 X55.55 Y75.191 E2.33645
G1 X55.029 Y75.201 E2.33972
